app/assets/images/female.svg

<?xml version="1.0" encoding="UTF-8" standalone="no"?>
<svg
   xmlns:dc="http://purl.org/dc/elements/1.1/"
   xmlns:cc="http://creativecommons.org/ns#"
   xmlns:rdf="http://www.w3.org/1999/02/22-rdf-syntax-ns#"
   xmlns:svg="http://www.w3.org/2000/svg"
   xmlns="http://www.w3.org/2000/svg"
   xmlns:xlink="http://www.w3.org/1999/xlink"
   xmlns:sodipodi="http://sodipodi.sourceforge.net/DTD/sodipodi-0.dtd"
   xmlns:inkscape="http://www.inkscape.org/namespaces/inkscape"
   version="1.1"
   preserveAspectRatio="xMidYMid meet"
   viewBox="0 0 100 154.53999"
   id="svg3744"
   sodipodi:docname="female.svg"
   width="100"
   height="154.53999"
   inkscape:version="0.92.0 r15299">
  <metadata
     id="metadata3748">
    <rdf:RDF>
      <cc:Work
         rdf:about="">
        <dc:format>image/svg+xml</dc:format>
        <dc:type
           rdf:resource="http://purl.org/dc/dcmitype/StillImage" />
      </cc:Work>
    </rdf:RDF>
  </metadata>
  <sodipodi:namedview
     pagecolor="#ffffff"
     bordercolor="#666666"
     borderopacity="1"
     objecttolerance="10"
     gridtolerance="10"
     guidetolerance="10"
     inkscape:pageopacity="0"
     inkscape:pageshadow="2"
     inkscape:window-width="640"
     inkscape:window-height="480"
     id="namedview3746"
     showgrid="false"
     fit-margin-top="0"
     fit-margin-left="0"
     fit-margin-right="0"
     fit-margin-bottom="0"
     inkscape:zoom="0.26166667"
     inkscape:cx="26.79"
     inkscape:cy="27.75"
     inkscape:window-x="0"
     inkscape:window-y="0"
     inkscape:window-maximized="0"
     inkscape:current-layer="svg3744" />
  <defs
     id="defs3722">
    <path
       d="m 646.18,278.8 6.55,4.06 5.83,5 5,5.83 4.07,6.55 3.03,7.17 1.9,7.69 0.65,8.11 -0.65,8.11 -1.9,7.69 -3.03,7.17 -4.07,6.55 -5,5.83 -5.83,5 -6.55,4.07 -7.17,3.03 -7.69,1.9 -8.11,0.65 -8.1,-0.65 -7.7,-1.9 -7.17,-3.03 -6.55,-4.07 -5.83,-5 -5,-5.83 -4.06,-6.55 -3.04,-7.17 -1.89,-7.69 -0.66,-8.11 0.66,-8.11 1.89,-7.69 3.04,-7.17 4.06,-6.55 5,-5.83 5.83,-5 6.55,-4.06 7.17,-3.04 7.7,-1.89 8.1,-0.66 8.11,0.66 7.69,1.89 v 0 z m -38.28,14.8 -4.37,2.71 -3.88,3.34 -3.34,3.88 -2.71,4.37 -2.02,4.78 -1.27,5.13 -0.43,5.4 0.43,5.4 1.27,5.13 2.02,4.78 2.71,4.37 3.34,3.89 3.88,3.33 4.37,2.71 4.78,2.02 5.13,1.27 5.4,0.43 5.41,-0.43 5.12,-1.27 4.78,-2.02 4.37,-2.71 3.89,-3.33 3.33,-3.89 2.71,-4.37 2.02,-4.78 1.27,-5.13 0.43,-5.4 -0.43,-5.4 -1.27,-5.13 -2.02,-4.78 -2.71,-4.37 -3.33,-3.88 -3.89,-3.34 -4.37,-2.71 -4.78,-2.02 -5.12,-1.27 -5.41,-0.43 -5.4,0.43 -5.13,1.27 v 0 z"
       id="iK2Bdi4yw"
       inkscape:connector-curvature="0" />
    <path
       d="M 650,402.29 H 596.43"
       id="f3Gf9Lky5q"
       inkscape:connector-curvature="0" />
    <path
       d="M 623.21,427.75 V 370.61"
       id="bfjfIFGQt"
       inkscape:connector-curvature="0" />
  </defs>
  <g
     visibility="inherit"
     id="g3742"
     style="visibility:inherit"
     transform="translate(-573.21,-273.21)">
    <g
       visibility="inherit"
       id="g3740"
       style="visibility:inherit">
      <g
         visibility="inherit"
         id="g3726"
         style="visibility:inherit">
        <use
           xlink:href="#iK2Bdi4yw"
           id="use3724"
           style="opacity:1;fill:#b52358;fill-opacity:1"
           x="0"
           y="0"
           width="100%"
           height="100%" />
      </g>
      <g
         visibility="inherit"
         id="g3732"
         style="visibility:inherit">
        <g
           id="g3730">
          <use
             xlink:href="#f3Gf9Lky5q"
             id="use3728"
             style="opacity:1;fill-opacity:0;stroke:#b52358;stroke-width:18;stroke-opacity:1"
             x="0"
             y="0"
             width="100%"
             height="100%" />
        </g>
      </g>
      <g
         visibility="inherit"
         id="g3738"
         style="visibility:inherit">
        <g
           id="g3736">
          <use
             xlink:href="#bfjfIFGQt"
             id="use3734"
             style="opacity:1;fill-opacity:0;stroke:#b52358;stroke-width:18;stroke-opacity:1"
             x="0"
             y="0"
             width="100%"
             height="100%" />
        </g>
      </g>
    </g>
  </g>
</svg>

<?xml version="1.0" encoding="UTF-8" standalone="no"?>
<!DOCTYPE svg PUBLIC "-//W3C//DTD SVG 1.1//EN" "http://www.w3.org/Graphics/SVG/1.1/DTD/svg11.dtd">
<svg version="1.1" xmlns="http://www.w3.org/2000/svg" xmlns:xlink="http://www.w3.org/1999/xlink" preserveAspectRatio="xMidYMid meet" viewBox="0 0 1200 800"><defs><path d="M646.18 278.8L652.73 282.86L658.56 287.86L663.56 293.69L667.63 300.24L670.66 307.41L672.56 315.1L673.21 323.21L672.56 331.32L670.66 339.01L667.63 346.18L663.56 352.73L658.56 358.56L652.73 363.56L646.18 367.63L639.01 370.66L631.32 372.56L623.21 373.21L615.11 372.56L607.41 370.66L600.24 367.63L593.69 363.56L587.86 358.56L582.86 352.73L578.8 346.18L575.76 339.01L573.87 331.32L573.21 323.21L573.87 315.1L575.76 307.41L578.8 300.24L582.86 293.69L587.86 287.86L593.69 282.86L600.24 278.8L607.41 275.76L615.11 273.87L623.21 273.21L631.32 273.87L639.01 275.76L639.01 275.76L646.18 278.8ZM607.9 293.6L603.53 296.31L599.65 299.65L596.31 303.53L593.6 307.9L591.58 312.68L590.31 317.81L589.88 323.21L590.31 328.61L591.58 333.74L593.6 338.52L596.31 342.89L599.65 346.78L603.53 350.11L607.9 352.82L612.68 354.84L617.81 356.11L623.21 356.54L628.62 356.11L633.74 354.84L638.52 352.82L642.89 350.11L646.78 346.78L650.11 342.89L652.82 338.52L654.84 333.74L656.11 328.61L656.54 323.21L656.11 317.81L654.84 312.68L652.82 307.9L650.11 303.53L646.78 299.65L642.89 296.31L638.52 293.6L633.74 291.58L628.62 290.31L623.21 289.88L617.81 290.31L612.68 291.58L612.68 291.58L607.9 293.6Z" id="iK2Bdi4yw"></path><path d="M650 402.29L596.43 402.29" id="f3Gf9Lky5q"></path><path d="M623.21 427.75L623.21 370.61" id="bfjfIFGQt"></path></defs><g visibility="inherit"><g visibility="inherit"><g visibility="inherit"><use xlink:href="#iK2Bdi4yw" opacity="1" fill="#b52358" fill-opacity="1"></use></g><g visibility="inherit"><g><use xlink:href="#f3Gf9Lky5q" opacity="1" fill-opacity="0" stroke="#b52358" stroke-width="18" stroke-opacity="1"></use></g></g><g visibility="inherit"><g><use xlink:href="#bfjfIFGQt" opacity="1" fill-opacity="0" stroke="#b52358" stroke-width="18" stroke-opacity="1"></use></g></g></g></g></svg>
